X:20
M:3/4
L:1/4
K:F
F | (A3/2 G/) F | G2 A | G2 F | G2 A | c2 c | (c d) c | A2 G | F2 c | d2 d | (d3/2 e/) f | c2 c | A2 c | d2 d | (d3/2 e/) f | c2 c | (A !fermata!G) F | (A3/2 G/) F | G2 !sintro!A | G2 F | G2 A | c2 c | (c d) c | A2 G | F2 !eintro!|]
